X: 22533
T: Lady Grey
R: three-two
M: 3/2
K: Eminor
"Em"G3E E2G2 "Bm7"F4|"Em"G3E E2G2 "Bm7"FGAF|"Em"G3E E2G2 "Bm7"F4|"D"A2D2- D2G2 "Bm7"FGAF:|
|:[K:D]"G"G2B2 d2c2 B4|"A"B3E E2G2 FGAF|1 "G"G2B2 d2c2 B4|"Bm7"A3D D2G2 FGAF:|2 "G"G2B2 d2c2 B2cd|"A"e2A2- A2d2 cdec|:
[K:Bm]"Bm7"d4 B4 F2d2|"A"c2A2 A2F2 e2f2|"G"d4 B4 F2d2|"A"c2a2 a2g2 g2f2|1 "Bm7"f4 d4 B2f2|"A"e2A2 A2a2 f2e2|
"G"g2f2 f2d2 d2B2|B2A2 A2F2 "A"B2c2:|2 "D"f4 d4 A2f2|"A"e2A2 a2b2 f2e2|"G"g3f e2d2 c2B2|"A"c2f2 A2G2 E2F2|:
[K:Em] "C"G3E E2G2 "D/C"FGAF|"C"G3E E2G2 "D/C"FGA2|"C"G3E E2G2 "D/C"FGAF|1 "C" d2G2- G2A2 "D/C"F2G2:|2 "C" d2G2- G2"N.C."g2f2d2||

